X:224
%%etbk:tnset id:69,pos:2,rep:3x,ant:
%%etbk:wsite http://www.thesession.org/tunes/display/728
%%etbk:pldat 2015-01-24T14:01,2014-12-09T17:07,2014-09-25T18:35,2014-05-02T16:49,2014-04-08T18:19,2014-03-23T15:51,2014-02-11T17:49,2014-02-10T18:29,2013-11-25T19:46,2013-11-17T15:31,2013-10-08T15:17,2013-05-22T15:33,2013-05-21T15:10,2013-05-05T13:54,2013-04-30T17:51
T:Scatter the Mud
Z: Piano Box Version by Martin Fleischmann
H: Created 2013-02-19 /  Last Modified 2013-02-19
M: 6/8
L: 1/8
R: jig
K: Ador
!5!e!1!AA BAB|eAA ABd|eAA BAB|!4!d!2!B!1!G G2d|
eAA BAB|!5!e!1!A!3!A !3!AGE|!2!G!1!A!2!B !4!d2!5!e|dBA A3:|
!2!e!5!aa !2!e!4!gg|!1!d!2!B!1!G !1!G!2!B!1!d|eaa egg|!1!d!2!B!1!d e2 e|
!2!e!5!aa egg|!1!d!2!B!1!G !3!A!2!G!1!E|!2!G!1!A!2!B !4!d2e|dBA !1!A3:|


